X: 13
T:Rigs O' Mallow
% Nottingham Music Database
S:Kevin Briggs, via EF
M:4/4
L:1/4
K:G
P:A
c/2B/2|"G"GB GB|"G"GB c/2B/2A/2G/2|"D7"FA FA|"D7"FA d/2c/2B/2A/2|
"G"GB GB|"G"GB "Em"d3/2B/2|"Am"c/2B/2A/2G/2 "D7"F/2G/2A/2c/2|"G"BG G:|
P:B
d|"G"gf/2e/2 dc|"G"Bc "D7"d2|"G"gf/2e/2 dc|"G"Bd "D7"A2|
"G""Em"gf/2e/2 dc|"G"Bc "Em"d3/2B/2|"Am"c/2B/2A/2G/2 "D7"F/2G/2A/2c/2|"G"BG G\
:|


